assets/images/woopay.svg

<svg width="68" height="24" viewBox="0 0 68 24" fill="none" xmlns="http://www.w3.org/2000/svg">
<path fill-rule="evenodd" clip-rule="evenodd" d="M36.1942 0.320312H3.70439C1.64827 0.320312 -0.0161994 1.93947 0.000118971 3.90447V15.8517C0.000118971 17.8324 1.66459 19.4358 3.72071 19.4358H19.1089L26.1421 23.2086L24.5429 19.4358H36.1942C38.2504 19.4358 39.9148 17.8324 39.9148 15.8517V3.90447C39.9148 1.92375 38.2504 0.320312 36.1942 0.320312ZM3.0194 3.0871C2.56249 3.11854 2.2198 3.27574 1.99134 3.57442C1.76288 3.85738 1.68129 4.21894 1.73025 4.62766C2.69304 10.5227 3.59055 14.4998 4.42279 16.5591C4.74916 17.3137 5.12448 17.6753 5.56508 17.6438C6.25045 17.5967 7.06637 16.6849 8.02916 14.9085C8.53503 13.9025 9.31831 12.3933 10.379 10.3812C11.2602 13.3523 12.4678 15.5845 13.9854 17.0779C14.4097 17.5023 14.8503 17.691 15.2745 17.6595C15.6499 17.6281 15.9436 17.4395 16.1394 17.0936C16.3026 16.7949 16.3679 16.4491 16.3352 16.0561C16.2373 14.6256 16.3842 12.6291 16.7921 10.0668C17.2164 7.42582 17.7386 5.5237 18.375 4.39186C18.5056 4.15606 18.5545 3.92026 18.5382 3.6373C18.5056 3.27574 18.3424 2.97706 18.0323 2.74126C17.7223 2.50546 17.3796 2.39542 17.0043 2.42686C16.531 2.4583 16.172 2.67838 15.9273 3.11854C14.9155 4.8949 14.1975 7.77166 13.7732 11.7645C13.1531 10.2554 12.6309 8.47906 12.223 6.3883C12.0435 5.46082 11.6029 5.02066 10.8849 5.06782C10.3953 5.09926 9.98737 5.41366 9.661 6.01102L6.08727 12.5663C5.4998 10.2869 4.94498 7.50442 4.4391 4.21894C4.32488 3.4015 3.85164 3.02422 3.0194 3.0871ZM34.4648 4.21878C35.6234 4.45458 36.4883 5.05194 37.0758 6.0423C37.598 6.89118 37.8591 7.91297 37.8591 9.13913C37.8591 10.7583 37.4348 12.236 36.5862 13.5879C35.6071 15.1599 34.3343 15.9459 32.7514 15.9459C32.474 15.9459 32.1802 15.9144 31.8702 15.8516C30.7116 15.6158 29.8467 15.0184 29.2593 14.028C28.7371 13.1634 28.476 12.1259 28.476 10.9155C28.476 9.29633 28.9002 7.81865 29.7488 6.48245C30.7442 4.91046 32.0171 4.12446 33.5836 4.12446C33.861 4.12446 34.1548 4.1559 34.4648 4.21878ZM33.7795 12.7233C34.3832 12.2045 34.7912 11.4342 35.0197 10.3967C35.0849 10.0352 35.1339 9.64217 35.1339 9.23345C35.1339 8.77757 35.036 8.29025 34.8402 7.80293C34.5954 7.18985 34.269 6.85973 33.8774 6.78113C33.2899 6.67109 32.7188 6.98549 32.1803 7.75577C31.7397 8.35313 31.4622 8.98193 31.3154 9.62645C31.2338 9.98801 31.2011 10.381 31.2011 10.774C31.2011 11.2299 31.2991 11.7172 31.4949 12.2045C31.7397 12.8176 32.066 13.1477 32.4577 13.2263C32.8656 13.3049 33.3062 13.132 33.7795 12.7233ZM26.8431 6.0423C26.2556 5.05194 25.3744 4.45458 24.2321 4.21878C23.9221 4.1559 23.6284 4.12446 23.351 4.12446C21.7844 4.12446 20.5116 4.91046 19.5161 6.48245C18.6676 7.81865 18.2433 9.29633 18.2433 10.9155C18.2433 12.1259 18.5044 13.1634 19.0266 14.028C19.614 15.0184 20.4789 15.6158 21.6375 15.8516C21.9476 15.9144 22.2413 15.9459 22.5187 15.9459C24.1016 15.9459 25.3744 15.1599 26.3535 13.5879C27.2021 12.236 27.6264 10.7583 27.6264 9.13913C27.6264 7.91297 27.3653 6.89118 26.8431 6.0423ZM24.787 10.3967C24.5585 11.4342 24.1505 12.2045 23.5468 12.7233C23.0735 13.132 22.6329 13.3049 22.225 13.2263C21.8333 13.1477 21.507 12.8176 21.2622 12.2045C21.0664 11.7172 20.9685 11.2299 20.9685 10.774C20.9685 10.381 21.0011 9.98801 21.0827 9.62645C21.2296 8.98193 21.507 8.35313 21.9476 7.75577C22.4861 6.98549 23.0572 6.67109 23.6447 6.78113C24.0363 6.85973 24.3627 7.18985 24.6075 7.80293C24.8033 8.29025 24.9012 8.77757 24.9012 9.23345C24.9012 9.64217 24.8686 10.0352 24.787 10.3967Z" fill="#7F54B3"/>
<path d="M43.1914 3.58984H46.6513C47.8691 3.58984 48.8471 3.9337 49.5852 4.62143C50.3233 5.30915 50.6924 6.21597 50.6924 7.34188C50.6924 8.52866 50.3172 9.45982 49.5668 10.1354C48.8225 10.8048 47.7892 11.1396 46.4667 11.1396H45.987V15.7771H43.1914V3.58984ZM45.987 5.92688V8.80253C46.6144 8.79036 47.0757 8.67168 47.3709 8.4465C47.6723 8.22132 47.823 7.86528 47.823 7.3784C47.823 6.855 47.6785 6.4868 47.3894 6.27379C47.1003 6.05469 46.6328 5.93905 45.987 5.92688Z" fill="#1E1E1E"/>
<path d="M59.7651 15.7771H56.8588L56.3883 13.7414H53.4359L52.9469 15.7771H50.0959L53.362 3.58984H56.499L59.7651 15.7771ZM55.8531 11.5504C55.4349 9.73674 55.1212 8.01135 54.9121 6.3742H54.8752C54.6537 8.06004 54.3431 9.78543 53.9433 11.5504H55.8531Z" fill="#1E1E1E"/>
<path d="M58.5225 3.58984H61.6594C62.3545 5.34262 62.8588 6.69372 63.1725 7.64314H63.2094C63.5231 6.66938 64.0213 5.31828 64.7041 3.58984H67.9149L64.6118 10.2632V15.7771H61.7794V10.2632L58.5225 3.58984Z" fill="#1E1E1E"/>
</svg>

<svg xmlns="http://www.w3.org/2000/svg" width="68" height="24" fill="none"><path fill="#7F54B3" fill-rule="evenodd" d="M36.2.32H3.7A3.64 3.64 0 0 0 0 3.9v11.95a3.65 3.65 0 0 0 3.72 3.59h15.39l7.03 3.77-1.6-3.77H36.2c2.06 0 3.72-1.6 3.72-3.59V3.9A3.65 3.65 0 0 0 36.2.32ZM3.01 3.09c-.46.03-.8.19-1.03.48-.23.29-.3.65-.26 1.06.96 5.9 1.86 9.87 2.7 11.93.32.75.7 1.12 1.14 1.08.68-.04 1.5-.96 2.46-2.73.5-1 1.29-2.52 2.35-4.53.88 2.97 2.09 5.2 3.6 6.7.43.42.87.61 1.3.58.37-.03.66-.22.86-.57.16-.3.23-.64.2-1.03-.1-1.43.04-3.43.45-6 .43-2.63.95-4.54 1.59-5.67.13-.23.17-.47.16-.75-.03-.36-.2-.66-.5-.9A1.45 1.45 0 0 0 17 2.43c-.47.03-.83.25-1.07.69-1.01 1.77-1.73 4.65-2.16 8.64a28.53 28.53 0 0 1-1.55-5.37c-.18-.93-.62-1.37-1.34-1.32-.48.03-.9.34-1.22.94L6.1 12.57a87.18 87.18 0 0 1-1.65-8.35c-.12-.82-.59-1.2-1.42-1.13Zm31.44 1.13c1.16.23 2.03.83 2.62 1.82.52.85.78 1.87.78 3.1a8.2 8.2 0 0 1-1.27 4.45c-.98 1.57-2.26 2.36-3.84 2.36-.28 0-.57-.04-.88-.1a3.75 3.75 0 0 1-2.61-1.82 5.91 5.91 0 0 1-.78-3.11c0-1.62.42-3.1 1.27-4.44 1-1.57 2.27-2.36 3.83-2.36.28 0 .57.04.88.1Zm-.68 8.5a4.11 4.11 0 0 0 1.24-2.32c.06-.36.11-.76.11-1.17 0-.45-.1-.94-.29-1.43-.24-.61-.57-.94-.96-1.02-.59-.1-1.16.2-1.7.98a5 5 0 0 0-.98 3.01c0 .46.1.95.3 1.43.24.62.57.95.96 1.03.4.07.85-.1 1.32-.5Zm-6.94-6.68a3.79 3.79 0 0 0-2.6-1.82c-.32-.06-.61-.1-.89-.1-1.57 0-2.84.79-3.83 2.36a8.1 8.1 0 0 0-1.28 4.44c0 1.2.26 2.24.79 3.1a3.75 3.75 0 0 0 2.6 1.83c.32.06.61.1.89.1 1.58 0 2.85-.79 3.83-2.36a8.2 8.2 0 0 0 1.28-4.45c0-1.23-.26-2.25-.79-3.1ZM24.8 10.4a4.11 4.11 0 0 1-1.24 2.32c-.48.41-.92.58-1.32.5-.4-.07-.72-.4-.97-1.02-.2-.48-.3-.97-.3-1.43a5 5 0 0 1 .98-3.02c.55-.76 1.12-1.08 1.7-.97.4.08.72.41.97 1.02.2.49.3.98.3 1.43 0 .41-.04.8-.12 1.17Z" clip-rule="evenodd"/><path fill="#1E1E1E" d="M43.2 3.59h3.45c1.22 0 2.2.34 2.94 1.03.73.69 1.1 1.6 1.1 2.72 0 1.19-.37 2.12-1.12 2.8-.75.66-1.78 1-3.1 1h-.48v4.64h-2.8V3.59Zm2.79 2.34V8.8c.62-.01 1.09-.13 1.38-.35.3-.23.45-.58.45-1.07 0-.52-.14-.9-.43-1.1-.29-.23-.76-.34-1.4-.35ZM59.77 15.78h-2.91l-.47-2.04h-2.95l-.5 2.04H50.1l3.26-12.19h3.14l3.27 12.19Zm-3.92-4.23a52.96 52.96 0 0 1-.94-5.18h-.03a57.12 57.12 0 0 1-.94 5.18h1.91ZM58.52 3.59h3.14c.7 1.75 1.2 3.1 1.51 4.05h.04c.31-.97.81-2.32 1.5-4.05h3.2l-3.3 6.67v5.52h-2.83v-5.52L58.52 3.6Z"/></svg>
